X: 23
T: The Donop __ Lady Mary Murray's Fantaisie
R: march, reel
M: 2/4
L: 1/8
Z: 2010 John Chambers <jc:trillian.mit.edu> (tune)
Z: 2015 John Chambers <jc:trillian.mit.edu> (dance)
S: http://archive.org/details/imslp-american-country-dances-1785-various
S: http://imslp.org/wiki/24_American_Country_Dances_(Cantelo,_Hezekiah)
B: Cantelo ed. "Twenty Four American Country Dances", London 1785 (Longman & Broderip)
K: F
V: 1
% - - - - - - - - - - - - - - - - - - - - - - - - - - - - -
   F | c>cc>c | (d2B)d | {d}cBAG | {G}F/E/F/G/ FF | c>cc>c | (d2B)d | {d}.c.B.A.G | F3 :|
|: f | ((3efg) GB | (A2G)f | ((3efg) GB | (A2G)F | c>cc>c | {Bc}d2cB | A2[G2C2] | [F3A,3] :|
|: z | .c2z2 | .d2z2 | cBAG | (F/E/)(F/G/) [F2A,2] | .c2z2 | d2z{ga}b | a2Tg2 | f3 :|
% - - - - - - - - - - - - - - - - - - - - - - - - - - - - -
V: 2 clef=bass middle=d
   z | zfaf | b2B2 | c2C2 | FfcA | Ffaf | b2B2 | c2C2 | FfF :|
|: z | c'cde | f2cf | c'cde | f2cA | Ffaf | b2ab | c'2c2 | fcF :|
|: z | "p"[a2f2]z2 | [b2f2]z2 | c'2c2 | fcAF | [a2f2]z2 | [b2f2]z2 | c'2c2 | [f3F3] :|
% - - - - - - - - - - Dance description - - - - - - - - - -
%%begintext align
%% Foot it and change sides .|. Ditto returning :|: Gallop down in hand
%% two Couple .|. up again and cast off :|: Allemande half round to the
%% right and foot it .|. Ditto to the left and Ditto :|:
%%endtext

%%sep 2 1 500

